X:314
T:Sheriff's Ride
M:4/4
L:1/8
N:Original key was E minor.
S:As played by John Kirkpatrick et al. on the Albion Country Band album "Battle of the Field."
S:Transcribed/transposed/arranged by Doug Mast.
R:hp 32
K:Dm
"Dm"AG |F2 D2 D2 EF|"C"GF E2 "Dm"D3A|d2 d2 d2 ed|"C"c2 A2 A2 AB|
"F"c2 c2 "Bflat"dc cB|"F"cB A2 "Gm"G2 FD|"Dm"F2 FG "C"cBAG|"Dm"A2 D2 D3 A|
"Dm"d2 d2 d2 ed | "C"c2 A2 A4 | "Dm"d2 de f2 ed | "C"cd c2 A2 AB |
"F"c2 c2 "Bflat"dc cB|"F"cB A2 "Gm"G2 FD|"Dm"F2 FG "C"cBAG|"Dm" A2 D2 D4||

